X:1
T:Title
%%score { ( 1 2 ) | ( 3 4 ) }
L:1/8
Q:1/4=106
M:4/4
K:A
V:1 treble nm="Grand Piano"
V:2 treble 
V:3 bass 
V:4 bass 
V:1
 [CA]2 A>A [CG]2 [CF]2 | C2 z2[K:bass] E4 | [CA]2 A>A [CG]2 [CF]2 | G2- [DG-]2 [DG]2 D2 | %4
w: H.~Ernest~Nichol * * * *||||
 [EGc]2 d>d [EGc]2 [DGB]2 | ^A4 B4 | z2 B2 z4 | E6 z2 | [CA]2 A>A [CG]2 [CF]2 | C2 z2[K:bass] z4 | %10
w: ||||||
 [A,DF]2 [B,EG]>[B,EG] [A,EA]2 [E^A]2 | [DB]4 [Ed]4 | [Ec]2 [EB]>[EB] [Ee]2 [EA]>[EA] | %13
w: |||
 [EG]2 [DF]2 [Fd]2 F>F | EFGA B2 c2 | [CA]6[K:bass] z2 |] %16
w: |||
V:2
 z2 C2 z4 | F2- [E,CF]2[K:bass] [E,C]2 [E,C]2 | z2 C2 z4 | D2 z2 z4 | z2 [EG]2 z4 | %5
 [C=G]2 [CG]2 [D^G]2 [DG]2 | [Ec]2 E->[EA] [EG]2 [B,DF]2 | B,2 A,2 G,2 D2 | z2 C2 z4 | %9
 F2- [E,CF]2[K:bass] [E,CE]2 [A,E]2 | x8 | x8 | x8 | x8 | x8 | z2[K:bass] E,,2 A,,2 z2 |] %16
V:3
 [A,,E,]2 [E,,E,]2 [A,,E,]2 [E,,E,]2 | [A,,E,]2 E,,2 A,,2 E,,2 | %2
 [A,,E,]2 [E,,E,]2 [A,,E,]2 [E,,E,]2 | [B,,E,]2 [E,,E,]2 [B,,E,]2 [E,,E,]2 | %4
 [B,,E,]2 [E,,E,]2 [B,,E,]2 [E,,E,]2 | [B,,E,]2 [E,,E,]2 [B,,E,]2 [E,,E,]2 | %6
 [A,,A,]2 [C,A,]2 [B,,B,]2 [A,,A,]2 | [G,,G,]2 [F,,F,]2 [E,,E,]2 [B,,E,G,]2 | %8
 [A,,E,]2 [E,,E,]2 [A,,E,]2 [E,,E,]2 | [A,,E,]2 E,,2 A,,2 C,2 | D,2 D,>D, C,2 [C,F,]2 | %11
 [B,,F,]4 [E,G,]4 | [A,,A,]2 [B,,G,]>[B,,G,] [C,A,]2 [C,A,]>[C,A,] | %13
 [D,A,]2 [D,A,]2 [B,,B,]2 [D,A,D]>[D,A,D] | .[E,A,C]2 [E,A,C][E,A,C] [E,G,D]2 [E,G,E]2 | E,6 z2 |] %16
V:4
 x8 | x8 | x8 | x8 | x8 | x8 | x8 | x8 | x8 | x8 | x8 | x8 | x8 | x8 | x8 | A,,4 z4 |] %16

